actions/22x22-light/path-cut.svg

<svg viewBox="0 0 22 22" xmlns="http://www.w3.org/2000/svg"><path d="m12.357702 3a6.0156658 6.0156658 0 0 0 -1.738903.4647519l.673629 1.1671019a4.6788512 4.6788512 0 0 1 1.065274-.2845953zm1.336815.00261v1.3472585a4.6788512 4.6788512 0 0 1 1.065274.2819843l.671018-1.1618757a6.0156658 6.0156658 0 0 0 -1.736292-.467363zm-4.232376 1.1331603a6.0156658 6.0156658 0 0 0 -1.2741514 1.2741514l1.1671017.6710182a4.6788512 4.6788512 0 0 1  .7754567-.7832898zm7.127938 0-.67102 1.1671017a4.6788512 4.6788512 0 0 1  .783291.775457l1.16188-.6684073a6.0156658 6.0156658 0 0 0 -1.274151-1.2741514zm1.945169 2.4308094-1.167102.6736292a4.6788512 4.6788512 0 0 1  .284596 1.0652741h1.347258a6.0156658 6.0156658 0 0 0 -.464752-1.7389033zm-11.0130548.0026109a6.0156658 6.0156658 0 0 0 -.4673629 1.7362924h-4.0548303v10.694517h10.694517v-4.052219a6.0156658 6.0156658 0 0 0 1.738903-.464752l-.673629-1.167102a4.6788512 4.6788512 0 0 1 -1.733681.336814 4.6788512 4.6788512 0 0 1 -4.6266322-4.0104433 4.6788512 4.6788512 0 0 1 -.0522193-.6684074 4.6788512 4.6788512 0 0 1  .0548302-.6684073 4.6788512 4.6788512 0 0 1  .2819844-1.0652741zm-3.1853786 3.0731071h2.7154047a6.0156658 6.0156658 0 0 0 5.3054827 5.3028723v2.718015h-8.0208874zm13.3133154 0a4.6788512 4.6788512 0 0 1 -.281984 1.0652743l1.161881.671018a6.0156658 6.0156658 0 0 0  .467362-1.7362923zm-.953002 2.2245433a4.6788512 4.6788512 0 0 1 -.775456.78329l.668407 1.16188a6.0156658 6.0156658 0 0 0 1.274151-1.274152z" fill="#4d4d4d"/></svg>

<svg xmlns="http://www.w3.org/2000/svg" viewBox="0 0 22 22">
  <defs id="defs3051">
    <style type="text/css" id="current-color-scheme">
      .ColorScheme-Text {
        color:#4d4d4d
      }
      </style>
  </defs>
 <path 
     style="fill:currentColor;fill-opacity:1;stroke:none"      
	 class="ColorScheme-Text"
        d="m 12.357702,3 a 6.0156658,6.0156658 0 0 0 -1.738903,0.4647519 l 0.673629,1.1671019 A 4.6788512,4.6788512 0 0 1 12.357702,4.3472585 L 12.357702,3 Z m 1.336815,0.00261 0,1.3472585 a 4.6788512,4.6788512 0 0 1 1.065274,0.2819843 L 15.430809,3.4699771 A 6.0156658,6.0156658 0 0 0 13.694517,3.0026141 Z M 9.462141,4.1357703 A 6.0156658,6.0156658 0 0 0 8.1879896,5.4099217 L 9.3550913,6.0809399 A 4.6788512,4.6788512 0 0 1 10.130548,5.2976501 L 9.462141,4.1357703 Z m 7.127938,0 -0.67102,1.1671017 A 4.6788512,4.6788512 0 0 1 16.70235,6.078329 L 17.86423,5.4099217 A 6.0156658,6.0156658 0 0 0 16.590079,4.1357703 Z m 1.945169,2.4308094 -1.167102,0.6736292 a 4.6788512,4.6788512 0 0 1 0.284596,1.0652741 l 1.347258,0 A 6.0156658,6.0156658 0 0 0 18.535248,6.5665797 Z M 7.5221932,6.5691906 A 6.0156658,6.0156658 0 0 0 7.0548303,8.305483 L 3,8.305483 3,19 l 10.694517,0 0,-4.052219 A 6.0156658,6.0156658 0 0 0 15.43342,14.483029 L 14.759791,13.315927 A 4.6788512,4.6788512 0 0 1 13.02611,13.652741 4.6788512,4.6788512 0 0 1 8.3994778,9.6422977 4.6788512,4.6788512 0 0 1 8.3472585,8.9738903 4.6788512,4.6788512 0 0 1 8.4020887,8.305483 4.6788512,4.6788512 0 0 1 8.6840731,7.2402089 L 7.5221932,6.5691906 Z m -3.1853786,3.0731071 2.7154047,0 A 6.0156658,6.0156658 0 0 0 12.357702,14.94517 l 0,2.718015 -8.0208874,0 0,-8.0208873 z m 13.3133154,0 a 4.6788512,4.6788512 0 0 1 -0.281984,1.0652743 l 1.161881,0.671018 a 6.0156658,6.0156658 0 0 0 0.467362,-1.7362923 l -1.347259,0 z m -0.953002,2.2245433 a 4.6788512,4.6788512 0 0 1 -0.775456,0.78329 l 0.668407,1.16188 a 6.0156658,6.0156658 0 0 0 1.274151,-1.274152 l -1.167102,-0.671018 z"
     />
</svg>
